!!!COM: Corelli, Arcangelo
!!!OTL: 
!!!ONM: Opus 6, No. 3
!!!OMV: 3
!!!CDT: 1653/2/17/-1713/1/8/
!!!OCY: Italia
**kern	**kern	**kern	**kern	**kern	**kern	**kern
*clefC	*clefG	*clefG	*clefG	*clefC	*clefG	*clefG
*k[b-e-]	*k[b-e-]	*k[b-e-]	*k[b-e-]	*k[b-e-]	*k[b-e-]	*k[b-e-]
*B-:	*B-:	*B-:	*B-:	*B-:	*B-:	*B-:
*M4/4	*M4/4	*M4/4	*M4/4	*M4/4	*M4/4	*M4/4
=1	=1	=1	=1	=1	=1	=1
1r	1r	1r	2.f	1r	1r	2.f
.	.	.	4e	.	.	4e
=2	=2	=2	=2	=2	=2	=2
4r	1r	2.r	2a-	4r	2.r	2a-
2F	.	.	.	2F	.	.
.	.	.	2g	.	.	2g
4E-	.	[4cc	.	4E-	[4cc	.
=3	=3	=3	=3	=3	=3	=3
2D-	4r	4cc]	4f	2D-	4cc]	4f
.	4f	4b-	2ff	.	4b-	2ff
2C	4cc	4a-	.	2C	4a-	.
.	4c	[4gg	4ee	.	[4gg	4ee
=4	=4	=4	=4	=4	=4	=4
4FF	4.c	4gg]	2aa-	4FF	4gg]	2aa-
2F	.	4ff	.	2F	4ff	.
.	8cc	.	.	.	.	.
.	4dd	4b	4.gg	.	4b	4.gg
8E-	8cc	[4cc	.	8E-	[4cc	.
8F	8c	.	8aa-	8F	.	8aa-
=5	=5	=5	=5	=5	=5	=5
2G	4g	4cc]	4ee-	2G	4cc]	4ee-
.	4G	4b	4dd	.	4b	4dd
4.A-	4.c	4cc	4cc	4.A-	4cc	4cc
.	.	4r	[4f	.	4r	[4f
8B-	8d-	.	.	8B-	.	.
=6	=6	=6	=6	=6	=6	=6
4c	4G	4r	4f]	4c	4r	4f]
4C	4g	2cc	4e	4C	2cc	4e
4F	4a-	.	2dd-	4F	.	2dd-
4G	4e-	[4b-	.	4G	[4b-	.
=7	=7	=7	=7	=7	=7	=7
4A-	4.e-	4b-]	2cc	4A-	4b-]	2cc
4AA-	.	2a-	.	4AA-	2a-	.
.	8e-	.	.	.	.	.
4D	4f	.	2b-	4D	.	2b-
4E	4c	[4g	.	4E	[4g	.
=8	=8	=8	=8	=8	=8	=8
2F	4.c	4g]	2a-	2F	4g]	2a-
.	.	2f	.	.	2f	.
.	8a-	.	.	.	.	.
2G	4d	.	4B	2G	.	4B
.	8e-	4e-	[4c	.	4e-	[4c
.	8f	.	.	.	.	.
=9	=9	=9	=9	=9	=9	=9
2GG	2g	2d	4c]	2GG	2d	4c]
.	.	.	4B	.	.	4B
4C	4g	4c	4c	4C	4c	4c
4r	4e	4r	[4cc	4e	4r	[4cc
=10	=10	=10	=10	=10	=10	=10
2.r	4f	2dd-	4cc]	4f	2dd-	4cc]
.	8g	.	2b-	8g	.	2b-
.	8f	.	.	8f	.	.
.	8e	2cc	.	8e	2cc	.
.	8c	.	.	8c	.	.
[4F	4f	.	4a-	[4F	.	4a-
=11	=11	=11	=11	=11	=11	=11
4F]	4d	8b	4.g	4F]	8b	4.g
.	.	8g	.	.	8g	.
2E-	4e-	4cc	.	2E-	4cc	.
.	.	.	8cc	.	.	8cc
.	4c	4f	8a	.	4f	8a
.	.	.	8f	.	.	8f
4D-	4d-	4b-	[4ff	4D-	4b-	[4ff
=12	=12	=12	=12	=12	=12	=12
2AA	2f	2.cc	4ff]	2AA	2.cc	4ff]
.	.	.	4ee-	.	.	4ee-
4BB-	4f	.	[2dd-	4BB-	.	[2dd-
4B-	[4b-	8b-	.	4B-	8b-	.
.	.	8a-	.	.	8a-	.
=13	=13	=13	=13	=13	=13	=13
2E	4b-]	4g	4dd-]	2E	4g	4dd-]
.	4g	2gg	8cc	.	2gg	8cc
.	.	.	8b-	.	.	8b-
4F	4cc	.	4a-	4F	.	4a-
4AA	[4f	8ff	[4cc	4AA	8ff	[4cc
.	.	8ee-	.	.	8ee-	.
=14	=14	=14	=14	=14	=14	=14
2.BB-	4f]	2dd-	4cc]	2.BB-	2dd-	4cc]
.	2g	.	4b-	.	.	4b-
.	.	4cc	4e	.	4cc	4e
4BB	4d	[4f	[4a-	4BB	[4f	[4a-
=15	=15	=15	=15	=15	=15	=15
2C	2c	4f]	4a-]	2C	4f]	4a-]
.	.	4e	4g	.	4e	4g
2FF	2c	2f	2f	2FF	2f	2f
=16	=16	=16	=16	=16	=16	=16
4E-	4c	4g	4cc	4E-	4g	4cc
4r	4r	4r	4r	4r	4r	4r
4D-	4f	4f	4b-	4D-	4f	4b-
4r	4r	4r	4r	4r	4r	4r
=17	=17	=17	=17	=17	=17	=17
1C	1g	1e	1cc	1C	1e	1cc
==	==	==	==	==	==	==
*-	*-	*-	*-	*-	*-	*-
!!!RWG: This file only contains pitch and duration data.
!!!RWG: Transposing instruments are not transposed.
!!!RWG: Durations of rests and tied notes may be interpreted.
!!!RWG: Key is interpreted using the Humdrum key tool.
!!!SCA: 
!!!YOR: Chrysander Edition
!!!AGN: concerto grosso
!!!AFT: stage1
!!!ENC: F. Bennion
!!!END: 1997/04/15
!!!AST: baroque
!!!YEC: Copyright 1994, Center for Computer Assisted Research in the Humanities
!!!YEM: Rights to all derivative electronic formats reserved.
!!!YEM: Refer to licensing agreement for further details.
!!!YEN: United States of America
!!!EED: W.B. Hewlett
!!!KEY: 1402908718
!!!EMD: Converted from MuseData to Humdrum Aug 9, 1999, by Bret Aarden using muse2kern.
!!!VTS: 2212804401
